X:658
T:Mason's Apron #2, The 
C:Joe Buchanan's Scottish Tome - Page 202.1
I:202 1
R:Reel
Z:Carl Allison
L:1/8
M:4/4
K:Amaj
(ed) | "A"cAAA ABAF | "A"EFAc "F#m"dcBA | "Bm"dBBB BcBA | "Bm"Bcde "E7"gfed | 
"A"cAAA ABAF | "A"EFAc dcBA | "Bm"Bcde fefa | "E7"edcB "A"A2 :| 
(ed) | "A"cAeA fAeA | "A"cAeA "F#m"fedc | "Bm"dBfB gBfB | "Bm"dBfB "E7"afed | 
"A"cAeA fAeA | "A"EFAc "F#m"dcBA | "Bm"Bcde "D"fefa | "E7"edcB "A"A2 :| 
e2 | "A"aeee fece | "A"aeee fece | "Bm"bfff gfdf | "Bm"dfff "E7"gfdf | 
"A"aeee fece | "A"aeee fedc | "Bm"Bcde "D"fefa | "E7"edcB "A"A2 :| 
(AB) | "A"c2 (ec) fcec | "A"c2 (ec) fcec | "Bm"d2 (fd) gdfd | "E7"d2 (fd) gdfd | 
"A"c2 (ec) fcec | "A"c2 (ec) fcec | "Bm"Bcde "D"fefa | "E7"edcB "A"A2 :| 

